X: 206
T: Mum's Mazurka
B: australian dance tunes
M:3/4
L:1/8
R: Mazurka
Q: 1/4=100
K:D
V:1 
F>A|:d2 F2 A2|e3 d ce|b2 a2 (3faf|A3 G F>A|!
d2 F2 A2|e3 d c>e|b2 a>g Bc|1d4 F>A:|2d4 fa||!
|:b>a fd fa|b>a fd ef|ge B2 e2|f>e d2 fa|!
b>a fd fa|b>a fd ef|gf eA ce|f>e d2:|
% abcbook-tune_id 62a0785056362665d5c9ceb4


% abcbook-boost 0
% abcbook-tablature 
% abcbook-transpose 
% abcbook-lastupdated 1654685631504
% abcbook-soundfonts 
% abcbook-repeats 1


